X:43
T:Irish Lady,The. (p)1651.PLFD.043
T:Anniseed Water Robin. (p)1651.PLFD.043
M:3/4
L:1/4
Q:3/4=70
S:Playford, Dancing Master,1st Ed.,1651.
O:England
H:1651.
Z:Chris Partington.
K:C
def|efg|c2 c|c2 d|e>fe/d/|cde/d/|cAA|1 A3:|2 A2|
|:G|FFF|F>ED|fff|f>ed|e2 f|g>fe/f/|d2 A|1 d2 :|2 d3:|
